X:809
L:1/8
M:6/8
K:D
 F3 F2 D | E2 F E2 D | FGF FED | EFE E2 D | F3 F2 D | E2 F E2 D | F2 F FGA | E3- E3 :: A2 B A2 F | 
 ABc d2 A | FGF FED | EFE E2 D | A2 B A2 F | ABc d2 A | FGF EFE | D3- D3 :|

